X:277
T:Paddy Cronin's
Z: id:dc-reel-375
M:C
L:1/8
K:A Dorian
D|E3F G2EF|G2AG FDDF|E3F GFGA|Bdd2 Bee2|!
E3F G2EF|G2AG FDDF|E3F GFGA|Bdd2 BEE|]!
d|e3d Bdef|geag fdd2|f2ed Bdeg|fedf e2ed|!
Bded Bdef|geag fdd2|g3e dged|Bded BEE|]!


